X: 1341
T: Cheer Up Jack
B: australian traditional tunes wiki
M:4/4
L:1/8
R: Reel
Q: 1/4=100
K:D
V:1 
|:"D"f2d2AA/A/ AA/B/|AF FD EF GA|"A7"g2e2cc/c/ cB|"D"AA "A7"Bc "D"d2d2:|
"D"AB/A/  FD FA FA|"G"BB/B/ Bd"D"A2A2|{F}"G"GB GB "D"FA/A/ AF|"A7"EE/E/ EEA2A2|
"D"AB/A/  FD FA FA|"G"BB/B/ Bd"D"A2A2|{F}"G"GB GB "D"FA/A/ AA|"A7"e>d ef "D"d4||
% abcbook-tune_id 6342d53afd36b49a86a02407


% abcbook-boost 0
% abcbook-tablature 
% abcbook-transpose 
% abcbook-lastupdated 1665324360143
% abcbook-soundfonts 
% abcbook-repeats 1
% NFF Book 2008

